svg/emoji_u1f370.svg

<svg width="128" height="128" viewBox="0 0 128 128" fill="none" xmlns="http://www.w3.org/2000/svg">
<path d="M97.9 105.05C98.29 104.46 109.16 107.17 109.16 107.17C109.16 107.17 115 106.23 116.97 103.67C118.94 101.11 118.52 96.7099 117.93 94.9399C117.34 93.1699 115.6 91.8799 115.6 91.8799C115.6 91.8799 116.39 78.1199 115.8 65.5299C115.21 52.9499 114.42 47.2399 114.42 47.2399C114.42 47.2399 118.21 44.3399 117.81 38.7299C117.41 33.1199 112.66 31.6099 110.12 31.5999C106.55 31.5899 103.95 33.9999 103.95 33.9999C103.95 33.9999 104.43 26.4999 97.7 24.4699C93.45 23.1899 91.13 27.0299 91.13 27.0299C91.13 27.0299 91.97 19.4299 85.76 17.3399C80.84 15.6899 78.47 20.1399 78.47 20.1399L59.77 14.3299C59.77 14.3299 56 10.9199 52.6 13.7299C49.8 16.0499 49.8 19.4199 49.8 19.4199C49.8 19.4199 40.51 28.1499 31.46 39.3599C22.41 50.5699 12.56 65.1299 11.36 68.6699C10.65 70.7699 10.91 73.5999 10.91 73.5999C10.91 73.5999 18.47 84.3399 18.63 88.2599C18.79 92.1799 53.7 100.01 53.86 101.42C54.03 102.84 97.9 105.05 97.9 105.05Z" fill="#FFCCC1" style="fill:#FFCCC1;fill:color(display-p3 1.0000 0.8000 0.7569);fill-opacity:1;"/>
<path d="M14.35 112.73C14.35 112.73 13.7 116.08 13.81 118.79C13.92 121.5 13.81 122.79 15.54 123.55C17.27 124.31 49.84 120.2 69.21 116.95C88.58 113.7 110.54 106.89 110.54 106.89C110.54 106.89 111.59 84.9201 110.62 73.6401C109.54 61.1301 108.13 58.9301 103.8 56.8801C99.47 54.8201 91.64 57.6601 87.5 59.0001C73.5 63.5101 49.09 69.8701 22.03 71.2901C13.14 71.7601 10.9 71.6501 10.9 71.6501C10.9 71.6501 10.81 72.6801 11.02 76.0701C11.3 80.7701 11.96 88.0201 12.03 88.8901C12.13 90.4001 14.35 112.73 14.35 112.73Z" fill="#DF7C1A" style="fill:#DF7C1A;fill:color(display-p3 0.8745 0.4863 0.1020);fill-opacity:1;"/>
<path d="M58.82 70.3199C74.25 67.1899 94.42 60.6899 97.66 60.2599C100.91 59.8299 104.8 60.0399 106.21 66.2099C107.62 72.3799 107.62 90.0099 107.51 93.0399C107.4 96.0699 107.08 102.56 107.08 102.56C107.08 102.56 94.53 108.51 64.23 113.27C33.93 118.03 13.81 118.79 13.81 118.79L11 76.0499C11 76.0499 33.72 75.3999 58.82 70.3199Z" fill="#FEA32E" style="fill:#FEA32E;fill:color(display-p3 0.9961 0.6392 0.1804);fill-opacity:1;"/>
<path d="M39.02 88.61C53.25 86.6 69.97 83.42 85.76 78.76C94.56 76.17 106.94 71.29 106.94 71.29C106.94 71.29 107.14 73.67 107.31 76.26C107.48 78.85 107.62 84.07 107.62 84.07C107.62 84.07 90.85 91.97 61.31 97.27C31.77 102.57 12.82 103.55 12.82 103.55L12.03 91.61C12.02 91.61 22.9 90.88 39.02 88.61Z" fill="#FFCCC1" style="fill:#FFCCC1;fill:color(display-p3 1.0000 0.8000 0.7569);fill-opacity:1;"/>
<path d="M60.7699 95.8501C75.4899 93.2501 75.2599 81.5901 75.2599 81.5901C75.2599 81.5901 65.0899 84.0301 60.1199 85.0301C56.0199 85.8501 45.6399 87.6001 45.6399 87.6001C45.6399 87.6001 49.3899 97.8601 60.7699 95.8501Z" fill="#FE4F20" style="fill:#FE4F20;fill:color(display-p3 0.9961 0.3098 0.1255);fill-opacity:1;"/>
<path d="M107.62 84.0599C107.73 83.4099 105.61 75.0599 93.8799 77.5699C81.6099 80.1899 79.8699 93.2599 80.4899 93.1199C81.2299 92.9399 88.3399 91.0699 95.1099 88.8699C102.6 86.4199 107.62 84.0599 107.62 84.0599Z" fill="#FE4F20" style="fill:#FE4F20;fill:color(display-p3 0.9961 0.3098 0.1255);fill-opacity:1;"/>
<path d="M13.71 103.5C13.71 103.5 16.09 92.41 28.68 91.66C43.18 90.79 44.61 100 44.61 100C44.61 100 33 101.78 28.57 102.26C21.41 103.05 13.71 103.5 13.71 103.5Z" fill="#FE4F20" style="fill:#FE4F20;fill:color(display-p3 0.9961 0.3098 0.1255);fill-opacity:1;"/>
<path d="M18.55 64.78C18.01 66.51 21.45 65.96 26.67 65.7C35.54 65.26 50.62 63.36 67.17 59C93.46 52.08 106.31 47.27 106.31 46.4C106.31 45.53 86.94 32.55 76.77 29.41C66.6 26.27 53.51 20.97 53.51 21.51C53.51 22.05 40.9 34.16 34.79 41.85C28.53 49.76 19.29 62.46 18.55 64.78Z" fill="white" style="fill:white;fill-opacity:1;"/>
<path d="M77.2993 10.6503C64.3048 4.09888 57.9986 8.39435 53.2635 17.0341C48.7381 25.31 47.7629 43.7097 56.267 48.2396C64.1978 52.4624 78.354 44.3569 84.6121 36.0983C90.8703 27.8398 91.2335 17.6739 77.2993 10.6503Z" fill="#FF5117" style="fill:#FF5117;fill:color(display-p3 1.0000 0.3176 0.0902);fill-opacity:1;"/>
<path d="M69.0561 28.1637C69.6395 28.3729 72.6793 26.3618 73.5424 24.6432C74.4418 22.8417 74.1754 21.361 72.4999 20.6034C70.9333 19.8971 69.6875 20.7374 68.922 22.5469C68.1566 24.3563 68.4156 27.9332 69.0561 28.1637Z" fill="#FEFFFF" style="fill:#FEFFFF;fill:color(display-p3 0.9961 1.0000 1.0000);fill-opacity:1;"/>
<path d="M69.0561 28.1637C69.6395 28.3729 72.6793 26.3618 73.5424 24.6432C74.4418 22.8417 74.1754 21.361 72.4999 20.6034C70.9333 19.8971 69.6875 20.7374 68.922 22.5469C68.1566 24.3563 68.4156 27.9332 69.0561 28.1637Z" fill="#FFEBCA" style="fill:#FFEBCA;fill:color(display-p3 1.0000 0.9216 0.7922);fill-opacity:1;"/>
<path d="M61.5718 19.7202C62.2925 20.4124 66.1112 18.4115 67.2485 16.6778C68.1152 15.3536 67.7458 13.8714 66.3767 13.0826C65.0077 12.2939 63.6621 12.9267 62.7694 14.2359C61.8767 15.545 60.9401 19.114 61.5718 19.7202Z" fill="#FEFFFF" style="fill:#FEFFFF;fill:color(display-p3 0.9961 1.0000 1.0000);fill-opacity:1;"/>
<path d="M61.5718 19.7202C62.2925 20.4124 66.1112 18.4115 67.2485 16.6778C68.1152 15.3536 67.7458 13.8714 66.3767 13.0826C65.0077 12.2939 63.6621 12.9267 62.7694 14.2359C61.8767 15.545 60.9401 19.114 61.5718 19.7202Z" fill="#FFEBCA" style="fill:#FFEBCA;fill:color(display-p3 1.0000 0.9216 0.7922);fill-opacity:1;"/>
<path d="M79.771 30.7589C80.6493 31.0572 83.401 28.0838 83.9293 26.3454C84.2355 25.3331 84.0773 23.7648 82.3597 23.3407C80.642 22.9167 79.2423 24.8455 79.1149 26.1685C78.9824 27.5001 78.7253 30.4104 79.771 30.7589Z" fill="#FEFFFF" style="fill:#FEFFFF;fill:color(display-p3 0.9961 1.0000 1.0000);fill-opacity:1;"/>
<path d="M79.771 30.7589C80.6493 31.0572 83.401 28.0838 83.9293 26.3454C84.2355 25.3331 84.0773 23.7648 82.3597 23.3407C80.642 22.9167 79.2423 24.8455 79.1149 26.1685C78.9824 27.5001 78.7253 30.4104 79.771 30.7589Z" fill="#FFEBCA" style="fill:#FFEBCA;fill:color(display-p3 1.0000 0.9216 0.7922);fill-opacity:1;"/>
<path d="M66.3719 41.2163C66.9776 41.8076 70.3073 40.9561 71.937 39.229C73.3662 37.7097 73.2324 36.2592 72.0394 35.1449C70.8501 34.0442 69.2048 34.2158 68.1182 35.621C67.0989 36.9496 65.6513 40.5242 66.3719 41.2163Z" fill="#FEFFFF" style="fill:#FEFFFF;fill:color(display-p3 0.9961 1.0000 1.0000);fill-opacity:1;"/>
<path d="M66.3719 41.2163C66.9776 41.8076 70.3073 40.9561 71.937 39.229C73.3662 37.7097 73.2324 36.2592 72.0394 35.1449C70.8501 34.0442 69.2048 34.2158 68.1182 35.621C67.0989 36.9496 65.6513 40.5242 66.3719 41.2163Z" fill="#FFEBCA" style="fill:#FFEBCA;fill:color(display-p3 1.0000 0.9216 0.7922);fill-opacity:1;"/>
<path d="M59.4731 34.9222C60.2554 35.0267 62.7986 31.7139 63.0446 29.8245C63.3122 27.7975 61.8122 26.8756 60.6627 26.7673C59.0632 26.6191 58.2507 27.709 57.9383 29.0524C57.5779 30.6797 58.7837 34.8367 59.4731 34.9222Z" fill="#FEFFFF" style="fill:#FEFFFF;fill:color(display-p3 0.9961 1.0000 1.0000);fill-opacity:1;"/>
<path d="M59.4731 34.9222C60.2554 35.0267 62.7986 31.7139 63.0446 29.8245C63.3122 27.7975 61.8122 26.8756 60.6627 26.7673C59.0632 26.6191 58.2507 27.709 57.9383 29.0524C57.5779 30.6797 58.7837 34.8367 59.4731 34.9222Z" fill="#FFEBCA" style="fill:#FFEBCA;fill:color(display-p3 1.0000 0.9216 0.7922);fill-opacity:1;"/>
</svg>

<?xml version="1.0" encoding="utf-8"?>
<!-- Generator: Adobe Illustrator 25.2.3, SVG Export Plug-In . SVG Version: 6.00 Build 0)  -->
<svg version="1.1" id="Layer_2" xmlns="http://www.w3.org/2000/svg" xmlns:xlink="http://www.w3.org/1999/xlink" x="0px" y="0px"
	 viewBox="0 0 128 128" style="enable-background:new 0 0 128 128;" xml:space="preserve">
<path style="fill:#FFCCC1;" d="M97.9,105.05c0.39-0.59,11.26,2.12,11.26,2.12s5.84-0.94,7.81-3.5s1.55-6.96,0.96-8.73
	c-0.59-1.77-2.33-3.06-2.33-3.06s0.79-13.76,0.2-26.35c-0.59-12.58-1.38-18.29-1.38-18.29s3.79-2.9,3.39-8.51s-5.15-7.12-7.69-7.13
	c-3.57-0.01-6.17,2.4-6.17,2.4s0.48-7.5-6.25-9.53c-4.25-1.28-6.57,2.56-6.57,2.56s0.84-7.6-5.37-9.69c-4.92-1.65-7.29,2.8-7.29,2.8
	l-18.7-5.81c0,0-3.77-3.41-7.17-0.6c-2.8,2.32-2.8,5.69-2.8,5.69s-9.29,8.73-18.34,19.94s-18.9,25.77-20.1,29.31
	c-0.71,2.1-0.45,4.93-0.45,4.93s7.56,10.74,7.72,14.66c0.16,3.92,35.07,11.75,35.23,13.16C54.03,102.84,97.9,105.05,97.9,105.05z"/>
<path style="fill:#DF7C1A;" d="M14.35,112.73c0,0-0.65,3.35-0.54,6.06c0.11,2.71,0,4,1.73,4.76s34.3-3.35,53.67-6.6
	c19.37-3.25,41.33-10.06,41.33-10.06s1.05-21.97,0.08-33.25c-1.08-12.51-2.49-14.71-6.82-16.76c-4.33-2.06-12.16,0.78-16.3,2.12
	c-14,4.51-38.41,10.87-65.47,12.29c-8.89,0.47-11.13,0.36-11.13,0.36s-0.09,1.03,0.12,4.42c0.28,4.7,0.94,11.95,1.01,12.82
	C12.13,90.4,14.35,112.73,14.35,112.73z"/>
<path style="fill:#FEA32E;" d="M58.82,70.32c15.43-3.13,35.6-9.63,38.84-10.06c3.25-0.43,7.14-0.22,8.55,5.95
	c1.41,6.17,1.41,23.8,1.3,26.83s-0.43,9.52-0.43,9.52s-12.55,5.95-42.85,10.71c-30.3,4.76-50.42,5.52-50.42,5.52L11,76.05
	C11,76.05,33.72,75.4,58.82,70.32z"/>
<path style="fill:#FFCCC1;" d="M39.02,88.61c14.23-2.01,30.95-5.19,46.74-9.85c8.8-2.59,21.18-7.47,21.18-7.47s0.2,2.38,0.37,4.97
	s0.31,7.81,0.31,7.81s-16.77,7.9-46.31,13.2c-29.54,5.3-48.49,6.28-48.49,6.28l-0.79-11.94C12.02,91.61,22.9,90.88,39.02,88.61z"/>
<path style="fill:#FE4F20;" d="M60.77,95.85c14.72-2.6,14.49-14.26,14.49-14.26s-10.17,2.44-15.14,3.44
	c-4.1,0.82-14.48,2.57-14.48,2.57S49.39,97.86,60.77,95.85z"/>
<path style="fill:#FE4F20;" d="M107.62,84.06c0.11-0.65-2.01-9-13.74-6.49c-12.27,2.62-14.01,15.69-13.39,15.55
	c0.74-0.18,7.85-2.05,14.62-4.25C102.6,86.42,107.62,84.06,107.62,84.06z"/>
<path style="fill:#FE4F20;" d="M13.71,103.5c0,0,2.38-11.09,14.97-11.84c14.5-0.87,15.93,8.34,15.93,8.34s-11.61,1.78-16.04,2.26
	C21.41,103.05,13.71,103.5,13.71,103.5z"/>
<path style="fill:#FFFFFF;" d="M18.55,64.78c-0.54,1.73,2.9,1.18,8.12,0.92c8.87-0.44,23.95-2.34,40.5-6.7
	c26.29-6.92,39.14-11.73,39.14-12.6c0-0.87-19.37-13.85-29.54-16.99s-23.26-8.44-23.26-7.9c0,0.54-12.61,12.65-18.72,20.34
	C28.53,49.76,19.29,62.46,18.55,64.78z"/>
<path style="fill:#FF5117;" d="M69.32,46.62c14.53-0.81,17.85-7.68,17.64-17.53c-0.21-9.43-8.55-25.86-18.18-25.54
	c-8.98,0.3-17.2,14.39-18.5,24.67S53.74,47.49,69.32,46.62z"/>
<path style="fill:#FEFFFF;" d="M67.72,27.33c-0.61,0.11-2.24,3.37-2.13,5.29c0.12,2.01,1.09,3.16,2.92,2.98
	c1.71-0.17,2.37-1.52,2.13-3.47S68.39,27.21,67.72,27.33z"/>
<path style="fill:#FEFFFF;" d="M78.42,30.91c-0.97-0.24-3.28,3.4-3.4,5.47c-0.09,1.58,0.97,2.68,2.55,2.68
	c1.58,0,2.43-1.22,2.55-2.8S79.27,31.12,78.42,30.91z"/>
<path style="fill:#FEFFFF;" d="M57.14,30.43c-0.91,0.18-1.81,4.13-1.4,5.9c0.24,1.03,1.16,2.31,2.86,1.82
	c1.7-0.49,1.95-2.86,1.4-4.07C59.45,32.86,58.22,30.21,57.14,30.43z"/>
<path style="fill:#FEFFFF;" d="M63.53,14.68c-0.82-0.21-3.28,2.19-3.83,4.5c-0.48,2.03,0.36,3.22,1.95,3.59
	c1.58,0.36,2.92-0.61,3.16-2.37C65.03,18.74,64.5,14.92,63.53,14.68z"/>
<path style="fill:#FEFFFF;" d="M72.65,16.69c-0.73,0.3-1.28,4.44-0.55,6.2c0.78,1.89,2.54,1.94,3.59,1.46
	c1.46-0.67,1.62-2.02,1.22-3.34C76.41,19.42,73.29,16.42,72.65,16.69z"/>
</svg>
